src/assets/east_icon.svg

<svg width="24" height="24" viewBox="0 0 24 24" fill="none" xmlns="http://www.w3.org/2000/svg">
<path d="M13.626 4L14.0234 4.80176L14.3389 4.48633C14.2102 4.37169 14.0906 4.3287 14.0664 4.32031L14.0215 4.30664L14.292 4.35352L14.4443 4.38086L14.707 4.11816L14.7773 4.18848L15.2246 4.63672C15.3381 4.69673 15.4478 4.7606 15.5498 4.83203L15.8623 5.05078L16.1738 5.26953C16.5158 5.50914 16.7857 5.82016 16.9795 6.1875L17.1631 6.53418L17.3457 6.88086C17.3462 6.88186 17.3472 6.88306 17.3477 6.88379L17.375 6.89648L18.1533 7.17773C18.6253 7.34873 19.0152 7.66406 19.2656 8.11719L19.4551 8.45898L19.6436 8.80078C19.7055 8.91268 19.7795 8.9976 19.8672 9.06543L20.4658 9.52734C20.7449 9.74298 20.9986 10.0521 21.2344 10.3936C21.2673 10.4044 21.3005 10.4172 21.334 10.4316C21.4876 10.4981 21.6703 10.6171 21.8096 10.8203C21.9435 11.0158 21.9918 11.2257 21.9971 11.4082L22.4141 11.8252L21.5146 12.7246L21.3594 12.7988L20.6885 13.1182C20.2658 13.3193 20.0998 13.4513 20.0635 13.4902L19.8076 13.7646L19.5527 14.04C19.428 14.174 19.3145 14.3221 19.2129 14.4863L19.0098 14.8145L18.8066 15.1416C18.5886 15.4939 18.298 15.7826 17.9443 15.998L17.2852 16.3994C17.2672 16.4104 17.2467 16.4245 17.2227 16.4873L16.9297 17.2539C16.8082 17.5714 16.6571 17.8709 16.4756 18.1484L16.0566 18.79C15.7453 19.266 15.2323 19.5819 14.5938 19.5352L13.9072 19.4844C13.8685 19.4815 13.8515 19.4815 13.8516 19.4814C13.8526 19.4814 13.8649 19.4815 13.8848 19.4795C13.9026 19.4777 13.9435 19.4729 13.9971 19.459C14.0438 19.4468 14.1503 19.4152 14.2695 19.3369C14.3096 19.3106 14.3545 19.273 14.4023 19.2275L14.0273 18.8525L13.668 19.6699L13.416 19.5596L13.2441 19.4834L13.0205 19.2598C12.97 19.2092 12.8799 19.1107 12.8096 18.9639C12.7349 18.808 12.6603 18.5455 12.748 18.2393C12.8351 17.9359 13.0345 17.7553 13.1719 17.665C13.3033 17.5788 13.4266 17.541 13.4941 17.5234C13.7173 17.4655 13.9527 17.4828 14.0537 17.4902L14.3965 17.5156L14.4951 17.5225L14.5918 17.374L14.8018 17.0537C14.8998 16.9037 14.9873 16.7329 15.0615 16.5391L15.3545 15.7725C15.526 15.3242 15.8238 14.9481 16.2451 14.6914L16.5742 14.4902L16.9043 14.29C16.9899 14.2379 17.0542 14.1733 17.1064 14.0889L17.5117 13.4336C17.6802 13.1613 17.8728 12.9087 18.0889 12.6768L18.1846 12.5732L18.0596 12.6143L17.6846 12.7363C17.3879 12.833 17.0883 12.9067 16.7861 12.9561L16.4111 13.0176L16.0361 13.0781C15.5425 13.1588 15.0708 13.0576 14.6514 12.832L14.2764 12.6299L13.9014 12.4287C13.8673 12.4104 13.8497 12.4068 13.8467 12.4062L13.0957 12.5762C12.7202 12.6612 12.3388 12.6733 11.959 12.6094L11.209 12.4824C11.054 12.4564 10.9012 12.4536 10.748 12.4727L10.373 12.5195L9.99805 12.5654C9.85879 12.5827 9.70726 12.6252 9.54199 12.7012L9.16699 12.873L8.79199 13.0459C8.21542 13.3106 7.61327 13.2452 7.10156 12.9307L6.72656 12.6992L6.35156 12.4688C6.32416 12.4519 6.30609 12.4452 6.29785 12.4424L5.5625 12.584C5.34027 12.6264 5.11735 12.6789 4.89355 12.7412L4.14355 12.9502C3.66852 13.0825 3.12547 13.0376 2.61328 12.9404L2.00684 12.8252H2V12.8232L1.91406 12.8076L2 10.8252H2.19434L2.28613 10.8428L2.98633 10.9756C3.18275 11.0128 3.33388 11.0293 3.44531 11.0322C3.4998 11.0337 3.54018 11.0311 3.56836 11.0283C3.59138 11.026 3.60375 11.0241 3.60645 11.0234L4.35645 10.8145C4.63252 10.7376 4.90986 10.6722 5.1875 10.6191L5.5625 10.5479L5.9375 10.4756L6.13574 10.4482C6.59406 10.4083 7.02424 10.5356 7.39844 10.7656L7.77344 10.9961L8.06836 11.1768L8.70801 10.8838C9.04258 10.7301 9.39136 10.6258 9.75195 10.5811L10.127 10.5342L10.502 10.4883C10.8487 10.4452 11.1961 10.4527 11.541 10.5107L11.916 10.5732L12.291 10.6367C12.4111 10.6569 12.5299 10.6542 12.6543 10.626L13.4043 10.4561C13.9153 10.3403 14.4107 10.4315 14.8486 10.667L15.2236 10.8691L15.5986 11.0703C15.6791 11.1136 15.7075 11.1055 15.7139 11.1045L16.0889 11.043L16.4639 10.9824C16.6616 10.9501 16.8621 10.9012 17.0654 10.835L17.8154 10.5908C18.0131 10.5264 18.2139 10.4809 18.417 10.4512C18.209 10.2516 18.0335 10.0225 17.8926 9.76758L17.7041 9.42578L17.5156 9.08496C17.5125 9.07922 17.5108 9.07621 17.5107 9.07617C17.5097 9.07546 17.5066 9.0738 17.5039 9.07227C17.4985 9.06919 17.4879 9.06446 17.4717 9.05859L17.083 8.91699L16.6934 8.77637C16.2141 8.60271 15.8221 8.27871 15.5771 7.81445L15.3936 7.46777L15.2109 7.12012C15.1606 7.02474 15.1001 6.95886 15.0264 6.90723L14.7148 6.68848L14.4023 6.46973C14.2906 6.39151 14.2324 6.3736 14.2236 6.37109L13.6807 6.27734C13.6044 6.26416 13.5095 6.24404 13.4111 6.20996C13.3273 6.1809 13.1584 6.11441 12.999 5.96875C12.8097 5.79556 12.6131 5.48027 12.6631 5.06836C12.7042 4.73038 12.8938 4.51743 12.9775 4.43359L13.083 4.32812L13.1982 4.21191L13.3457 4.13965L13.626 4Z" fill="#444444"/>
</svg>

<svg xmlns="http://www.w3.org/2000/svg" width="24" height="24" fill="none" viewBox="0 0 24 24"><path fill="#444" d="m13.626 4 .397.802.316-.316a.8.8 0 0 0-.273-.166l-.045-.013.271.047.152.027.263-.263.07.07.448.449q.17.09.325.195l.312.219.312.219c.342.24.612.55.806.918l.183.346.183.347.002.003.027.012.778.282c.472.17.862.486 1.113.94l.19.341.188.342a.8.8 0 0 0 .223.264l.599.462c.279.216.533.525.768.867q.05.015.1.038c.154.066.336.185.476.388.134.196.182.406.187.588l.417.417-.9.9-.155.074-.67.32c-.423.2-.59.332-.625.371l-.256.275-.255.275a3 3 0 0 0-.34.446l-.203.329-.203.327a2.6 2.6 0 0 1-.863.856l-.659.401c-.018.011-.038.025-.062.088l-.293.767a4.7 4.7 0 0 1-.454.894l-.42.642c-.31.476-.824.792-1.462.745l-.687-.05q-.057-.003-.055-.004l.033-.002a.922.922 0 0 0 .518-.252l-.376-.375-.359.818-.252-.11-.172-.077-.223-.223a1.024 1.024 0 0 1 .474-1.736c.222-.058.458-.041.559-.034l.342.026.1.007.096-.149.21-.32q.147-.224.26-.515l.293-.767c.171-.448.469-.824.89-1.08l.33-.202.33-.2a.6.6 0 0 0 .201-.201l.406-.655q.252-.41.577-.757l.096-.104-.125.041-.375.122q-.446.145-.899.22l-.375.062-.375.06c-.494.08-.965-.02-1.385-.246l-.375-.202-.375-.201a.2.2 0 0 0-.054-.023l-.751.17a2.9 2.9 0 0 1-1.137.033l-.75-.127a1.6 1.6 0 0 0-.461-.01l-.375.048-.375.045c-.14.018-.29.06-.456.136l-.375.172-.375.173c-.577.265-1.179.2-1.69-.115l-.375-.232-.375-.23a.3.3 0 0 0-.054-.027l-.735.142a8 8 0 0 0-.67.157l-.75.21c-.474.131-1.018.087-1.53-.01l-.606-.116H2v-.002l-.086-.015L2 10.825h.194l.092.018.7.133q.294.054.46.056a1 1 0 0 0 .16-.009l.75-.208q.415-.116.832-.196l.375-.071.375-.072.198-.028c.458-.04.888.088 1.262.318l.375.23.295.18.64-.292a3.5 3.5 0 0 1 1.044-.303l.375-.047.375-.046a3.6 3.6 0 0 1 1.039.023l.375.062.375.064q.178.03.363-.011l.75-.17a2.05 2.05 0 0 1 1.445.211l.375.202.375.201c.08.044.108.035.115.034l.375-.061.375-.06q.297-.05.601-.148l.75-.244q.297-.096.602-.14a2.9 2.9 0 0 1-.524-.683l-.189-.342-.188-.341-.005-.009-.007-.004-.032-.013-.389-.142-.39-.14a2 2 0 0 1-1.116-.963l-.183-.346-.183-.348a.6.6 0 0 0-.185-.213l-.311-.219-.313-.218a.7.7 0 0 0-.178-.099l-.543-.094a2 2 0 0 1-.27-.067A1.2 1.2 0 0 1 13 5.969a1.05 1.05 0 0 1-.336-.9c.041-.339.23-.552.314-.635l.106-.106.115-.116.148-.072z"/></svg>
